X:1
T:Dirge (Gibson), 77.77.77
T:Dirge (Gibson), 77.77.77
T:William H. Gibson, 1898
T:Public Domain Courtesy of the Cyber Hymnal™
C:William H. Gibson, 1898
Z:Public Domain
Z:Courtesy of the Cyber Hymnal™
%%score ( 1 2 ) ( 3 4 )
L:1/8
Q:1/4=108
M:2/4
K:C
V:1 treble 
V:2 treble 
V:3 bass 
V:4 bass 
V:1
 E2 [EA]2 | [Ec]2 [EB]2 | [Ec]2 [Ad]2 | [^Ge]4 | [Ae]2 [Af]2 | [Ae]2 [Ad]2 | [Ac]2 [^GB]2 | [EA]4 | %8
 [Ec]2 [Ec]2 | [Fc]2 [Ad]2 | [^Ge]2 [Af]2 | [Ae]4 | [^Ge]2 [Ed]2 | [Ec]2 [FB]2 | [EA]2 [E^G]2 | %15
 [EA]4 | E2 [EA]2 | [Ac]2 [^GB]2 | [Ac]2 [Ad]2 | [Ae]4 | E2 !fermata![^Ge]2 | %21
 [EA]2 !fermata![^Ge]2 | [Ac]2 [^GB]2 | [EA]4 |] %24
V:2
 E2 x2 | x4 | x4 | x4 | x4 | x4 | x4 | x4 | x4 | x4 | x4 | x4 | x4 | x4 | x4 | x4 | E2 x2 | x4 | %18
 x4 | x4 | E2 x2 | x4 | x4 | x4 |] %24
V:3
 [A,C]2 [A,C]2 | [E,A,]2 [E,^G,]2 | A,2 [F,A,]2 | [E,B,]4 | [A,C]2 [D,D]2 | [A,C]2 [F,D]2 | %6
 [E,E]2 [E,D]2 | [A,,C]4 | [A,C]2 [G,_B,]2 | [F,A,]2 [F,A,]2 | [E,B,]2 [D,D]2 | [A,C]4 | %12
 [E,B,]2 [^G,B,]2 | [A,C]2 [D,D]2 | [E,C]2 [E,D]2 | [A,,C]4 | [A,C]2 [A,C]2 | [E,E]2 [E,E]2 | %18
 [A,E]2 [D,F]2 | [A,C]4 | [A,C]2 !fermata![E,B,]2 | [A,C]2 !fermata![E,B,]2 | [E,,E,E]2 [E,,E,D]2 | %23
 [A,,C]4 |] %24
V:4
 x4 | x4 | A,2 x2 | x4 | x4 | x4 | x4 | x4 | x4 | x4 | x4 | x4 | x4 | x4 | x4 | x4 | x4 | x4 | x4 | %19
 x4 | x4 | x4 | x4 | x4 |] %24

